src/icons/vue-config.svg

<svg version="1.1" viewBox="0 0 24 24" xmlns="http://www.w3.org/2000/svg"><path d="m13 9h5.5l-5.5-5.5v5.5m-7-7h8l6 6v12a2 2 0 0 1 -2 2h-12c-1.11 0-2-.9-2-2v-16c0-1.11.89-2 2-2m9 16v-2h-9v2h9m3-4v-2h-12v2h12z" fill="#757575" style="fill:#757575"/><g transform="matrix(.57384 0 0 .57384 11.066 10.911)"><path d="m1.791 3.6914 10.209 17.619 10.209-17.533v-.085938h-3.9688l-6.1816 10.615-6.1523-10.615z" style="fill:#41b883"/><path d="m5.9072 3.6914 6.1521 10.617 6.1809-10.617h-3.7228l-2.4337 4.1783-2.4226-4.1783z" style="fill:#35495e"/></g></svg>

<svg viewBox="0 0 24 24" xmlns="http://www.w3.org/2000/svg"><path d="M13 9h5.5L13 3.5V9M6 2h8l6 6v12a2 2 0 0 1-2 2H6a2 2 0 0 1-2-2V4c0-1.11.89-2 2-2m9 16v-2H6v2h9m3-4v-2H6v2h12z" fill="#757575" style="fill:#757575"/><path d="M1.791 3.691 12 21.311 22.209 3.776v-.086H18.24L12.06 14.306 5.906 3.691z" style="fill:#41b883" transform="translate(11.066 10.911) scale(.57384)"/><path d="m5.907 3.691 6.152 10.617L18.24 3.691h-3.723L12.084 7.87 9.66 3.69z" style="fill:#35495e" transform="translate(11.066 10.911) scale(.57384)"/></svg>
